resources/svg/hdmi-cable-o.svg

<svg xmlns="http://www.w3.org/2000/svg" viewBox="0 0 15 15" fill="none"><path d="M3.5 4V.5h8V4M5 2.5h1m3 0h1M5.5 13v2m4-2v2m-7-10.5h10v5l-2 1v2h-6v-2l-2-1v-5z" stroke="currentColor"/></svg>

<svg xmlns="http://www.w3.org/2000/svg" viewBox="0 0 15 15" fill="none"><path d="M3.5 4V0.5H11.5V4M5 2.5H6M9 2.5H10M5.5 13V15M9.5 13V15M2.5 4.5H12.5V9.5L10.5 10.5V12.5H4.5V10.5L2.5 9.5V4.5Z" stroke="black"/></svg>
